packages/core/src/svgs/tokens/mono/DIVER.svg

<svg width="24" height="24" viewBox="0 0 24 24" fill="none" xmlns="http://www.w3.org/2000/svg">
<path d="M10.2499 7.49988H9.32498C10.2112 8.32102 10.9473 9.29058 11.5 10.3648C11.675 10.1948 11.85 10.0349 12.02 9.88487C11.5565 9.00339 10.9594 8.19888 10.2499 7.49988ZM8.29999 7.55489C7.98999 7.60488 7.68998 7.67488 7.39999 7.76988C8.69999 8.76987 9.74501 10.0548 10.435 11.5198C10.61 11.3098 10.785 11.1099 10.96 10.9199C10.3356 9.61377 9.42666 8.46399 8.29999 7.55489ZM6.64499 8.09488C6.415 8.21488 6.195 8.34987 5.995 8.50488C7.54499 9.57829 8.76554 11.062 9.51999 12.7899C9.64998 12.5799 9.79004 12.3749 9.93004 12.1799C9.23333 10.5409 8.0963 9.12698 6.64499 8.09488ZM5.435 8.98488C5.24999 9.16988 5.075 9.36988 4.92499 9.58488C5.78895 10.1414 6.55297 10.8395 7.18499 11.6499C7.84499 12.4998 8.31998 13.4498 8.61499 14.4699C8.74998 14.1699 8.89499 13.8698 9.04498 13.5949C8.36345 11.7129 7.09867 10.0978 5.435 8.98488ZM6.59499 12.0649C7.41408 13.1287 7.94455 14.3859 8.13499 15.7149C8.04998 15.9648 7.97499 16.2299 7.90499 16.4999H7.47499C7.40556 15.1072 6.94457 13.7623 6.14499 12.6199C5.63206 11.918 5.001 11.3106 4.28 10.8248L4.38 10.5748C4.43 10.4449 4.49 10.3199 4.55 10.1948C5.36999 10.7349 6.04999 11.3649 6.59999 12.0649H6.59499ZM6.12999 16.4999H6.73499C6.62999 15.1499 6.24499 13.9999 5.53499 13.0199C5.11193 12.4343 4.59695 11.921 4.01 11.4999L3.73 12.1999C4.3 12.6299 4.755 13.0948 5.11499 13.6099C5.69974 14.4681 6.04967 15.4644 6.12999 16.4999ZM4.5 13.9999C5.005 14.7249 5.285 15.5448 5.38999 16.4999H4.85C4.6519 15.3492 4.06827 14.3 3.195 13.5249L3.445 12.8949C3.88 13.2449 4.22499 13.6099 4.5 14.0048V13.9999ZM2.61 14.9749L2.91 14.2449C3.52345 14.8619 3.94093 15.6463 4.10999 16.4999H3.43C3.24877 15.9471 2.97115 15.4308 2.61 14.9749ZM2.29 15.7749C2.44 16.0048 2.55501 16.2448 2.655 16.4999H2L2.29 15.7749ZM12.1 7.49988H11.24C11.7609 8.08336 12.2138 8.72413 12.59 9.40988C12.79 9.24987 12.985 9.10488 13.175 8.96488C12.8635 8.44383 12.5036 7.95331 12.1 7.49988ZM13.8249 7.49988H13.04C13.3065 7.83428 13.5521 8.18495 13.775 8.54988L14.325 8.20987C14.1691 7.9658 14.0023 7.72888 13.8249 7.49988ZM15.63 7.49988H14.72L14.955 7.84988C15.195 7.71987 15.42 7.59988 15.63 7.49988ZM15.97 7.89488L16.09 7.49988H22L19.52 13.4749C19.126 14.3831 18.4727 15.1546 17.6419 15.6928C16.811 16.2309 15.8398 16.5116 14.85 16.4999H8.53998C14.37 13.0849 15.375 9.8249 15.97 7.89488Z" fill="white"/>
</svg>

<svg xmlns="http://www.w3.org/2000/svg" width="24" height="24" fill="none" viewBox="0 0 24 24">
    <path fill="#fff" d="M10.25 7.5h-.925a10.4 10.4 0 0 1 2.175 2.865q.264-.255.52-.48A9.7 9.7 0 0 0 10.25 7.5m-1.95.055q-.465.074-.9.215c1.3 1 2.345 2.285 3.035 3.75q.263-.315.525-.6A9.7 9.7 0 0 0 8.3 7.555m-1.655.54c-.23.12-.45.255-.65.41A10.15 10.15 0 0 1 9.52 12.79c.13-.21.27-.415.41-.61a9.64 9.64 0 0 0-3.285-4.085m-1.21.89c-.185.185-.36.385-.51.6a9.2 9.2 0 0 1 2.26 2.065c.66.85 1.135 1.8 1.43 2.82.135-.3.28-.6.43-.875a9.4 9.4 0 0 0-3.61-4.61m1.16 3.08a7.8 7.8 0 0 1 1.54 3.65c-.085.25-.16.515-.23.785h-.43a7.4 7.4 0 0 0-1.33-3.88 7.5 7.5 0 0 0-1.865-1.795l.1-.25c.05-.13.11-.255.17-.38.82.54 1.5 1.17 2.05 1.87zM6.13 16.5h.605c-.105-1.35-.49-2.5-1.2-3.48A6.7 6.7 0 0 0 4.01 11.5l-.28.7a6.3 6.3 0 0 1 1.385 1.41A5.95 5.95 0 0 1 6.13 16.5M4.5 14c.505.725.785 1.545.89 2.5h-.54a5.15 5.15 0 0 0-1.655-2.975l.25-.63c.435.35.78.715 1.055 1.11zm-1.89.975.3-.73a4.4 4.4 0 0 1 1.2 2.255h-.68a4.9 4.9 0 0 0-.82-1.525m-.32.8c.15.23.265.47.365.725H2zM12.1 7.5h-.86c.52.583.974 1.224 1.35 1.91.2-.16.395-.305.585-.445A9.7 9.7 0 0 0 12.1 7.5m1.725 0h-.785q.4.502.735 1.05l.55-.34a10 10 0 0 0-.5-.71m1.805 0h-.91l.235.35c.24-.13.465-.25.675-.35m.34.395.12-.395H22l-2.48 5.975a5.03 5.03 0 0 1-4.67 3.025H8.54c5.83-3.415 6.835-6.675 7.43-8.605"/>
</svg>
